src/img/home/SVG/3.svg

<svg width="21" height="21" viewBox="0 0 21 21" fill="none" xmlns="http://www.w3.org/2000/svg">
<path d="M4.6875 21V6.98438H0.328125V21H4.6875ZM2.48438 5.10938C3.89062 5.10938 5.01562 3.9375 5.01562 2.53125C5.01562 1.17188 3.89062 0.046875 2.48438 0.046875C1.125 0.046875 0 1.17188 0 2.53125C0 3.9375 1.125 5.10938 2.48438 5.10938ZM20.9531 21H21V13.3125C21 9.5625 20.1562 6.65625 15.75 6.65625C13.6406 6.65625 12.2344 7.82812 11.625 8.90625H11.5781V6.98438H7.40625V21H11.7656V14.0625C11.7656 12.2344 12.0938 10.5 14.3438 10.5C16.5938 10.5 16.6406 12.5625 16.6406 14.2031V21H20.9531Z" fill="$textColorMinor"/>
</svg>

<svg width="21" height="21" fill="none" xmlns="http://www.w3.org/2000/svg"><path d="M4.688 21V6.984H.327V21h4.36zM2.483 5.11c1.407 0 2.532-1.173 2.532-2.579 0-1.36-1.125-2.484-2.532-2.484A2.5 2.5 0 000 2.53c0 1.407 1.125 2.58 2.484 2.58zM20.954 21H21v-7.688c0-3.75-.844-6.656-5.25-6.656-2.11 0-3.516 1.172-4.125 2.25h-.047V6.984H7.406V21h4.36v-6.938c0-1.828.328-3.562 2.578-3.562s2.297 2.063 2.297 3.703V21h4.312z" fill="$textColorMinor"/></svg>
